!!!!SEGMENT: pl-wtm--r-1041--001_kurpinski-karol-kazimierz--musique-du-medecin-turc-nr-1.krn
!!!cenid: 18xx:2166
!!!COM: Kurpiński, Karol Kazimierz
!!!COM-rismID: pe30018952
!!!CDT: 1785/03/06-1857/09/18
!!!CNT: Polish
!!!OTL: Musique du Medecin Turc - Nr 1
!!!PDT:
!!!AGN: Secular
!!!YEC: Copyright 2022 Narodowy Instytut Fryderyka Chopina (https://polishscores.org)
!!!YEM: License CC-BY-4.0 (https://creativecommons.org/licenses/by/4.0)
!!!SMS-siglum: PL-Wtm
!!!SMS-shelfmark: R 1041
!!!SMS-shelfwork: 001 W
!!!SMS-variant:
!!!SMS-altvar:
!!!NIFC-rismSourceID: 1001084036
!!!NIFC-rismChildID: 1001084036
!!!NIFC-islandoraID:
!!!URL-pdf-islandora:
!!!URL-scan:
!!!IIIF:
!!!ONB-nifc: UWAGA: skan 0007, instrument to najprawdopodobniej violino
!!!AIN: 1 tambn 1 violn
!!!key:
**kern	**kern	**dynam
*part2	*part1	*
*staff2	*staff1	*
*Itambn	*Ivioln	*
*I"Tambour debaſque	*I"Violino	*
*I'T:deb:	*I'Viol:	*
*clefF4	*clefG2	*
*k[]	*k[]	*
*C:	*C:	*
*M6/8	*M6/8	*
=1	=1	=1
!	!LO:TX:b:t=Mouvement du Valse; mais pas trop vite	!
2.ryy	8.r	.
!	!LO:TX:a:t=Danse de deux Demoiselles	!
.	16g|\LL	.
.	16a|\	.
.	16b|\JJ	.
!	!	!LO:DY:rj
.	8cc\L	f
.	8cc\	.
.	8cc\J	.
=2	=2	=2
*	*tremolo	*
2.ryy	8ee\L	.
.	8ee\	.
.	8ee\J	.
.	8gg\L	.
.	8gg\	.
.	8gg\J	.
*	*Xtremolo	*
=3	=3	=3
2.ryy	4ccc\	.
.	8r	.
.	(16cc\LL	.
.	16ee\)	.
.	16gg'\	p
.	16ee'\	.
.	16gg'\	.
.	16ee'\JJ	.
=4	=4	=4
2.ryy	(16gg\LL	.
.	16ff\)	.
.	16dd'\	.
.	16ff'\	.
.	16gg'\	.
.	16ff'\JJ	.
.	(16gg\LL	.
.	16ee\)	.
.	16cc'\	.
.	16ee'\	.
.	16gg'\	.
.	16ee'\JJ	.
=5	=5	=5
2.ryy	8gg'\L	ff
.	8bb'\	.
.	8ddd'\J	.
!	!	!LO:DY:rj
.	(16cc\LL	p
.	16ee\)	.
.	16gg\	.
.	16ee\	.
.	16gg\	.
.	16ee\JJ	.
=6	=6	=6
2.ryy	(16gg\LL	.
.	16ff\)	.
.	16dd\	.
.	16ff\	.
.	16gg\	.
.	16ff\JJ	.
.	(16gg\LL	.
.	16ee\)	.
.	16cc\	.
.	16ee\	.
.	16gg\	.
.	16ee\JJ	.
=7	=7	=7
2.ryy	4gg\	.
.	8g/	.
!	!	!LO:DY:rj
.	(16cc\LL	p
.	16ee\)	.
.	16gg'\	.
.	16ee'\	.
.	16gg'\	.
.	16ee'\JJ	.
=8	=8	=8
2.ryy	(16cc\LL	.
.	16ff\)	.
.	16aa\	.
.	16ff\	.
.	16aa\	.
.	16ff\JJ	.
.	(16dd\LL	.
.	16ff\)	.
.	16aa'\	.
.	16ff'\	.
.	16aa'\	.
.	16ff'\JJ	.
!!LO:LB:g=original
=9	=9	=9
2.ryy	(16dd\LL	.
.	16ff\)	.
.	16bbn'\	.
.	16ff'\	.
.	16bb'\	.
.	16ff'\JJ	.
.	(16bb\LL	.
.	16aa\	.
.	16gg\	.
.	16ff\	.
.	16ee\	.
.	16dd\JJ)	.
=10	=10	=10
2.ryy	(16cc\LL	.
.	16dd\	.
.	16ee\	.
.	16ff\	.
.	16gg\	.
.	16aa\JJ)	.
.	(16bb\LL	.
.	16aa\	.
.	16gg\	.
.	16ff\	.
.	16ee\	.
.	16dd\JJ)	.
=11	=11	=11
2.ryy	(16cc\LL	.
.	16dd\	.
.	16ee\	.
.	16ff\	.
.	16gg\	.
.	16aa\JJ)	.
.	(16bb\LL	.
.	16ccc\	.
.	16bb\	.
.	16aa\	.
.	16gg\	.
.	16ff\JJ)	.
=12	=12	=12
2.ryy	(16ee\LL	.
.	16gg\	.
.	16ccc\	.
.	16gg\	.
.	16ccc\	.
.	16gg\JJ)	.
.	(16ee^<\LL	.
.	16gg\	.
.	16aa\	.
.	16bb\	.
.	16ccc\	.
.	16bb\JJ)	.
=13	=13	=13
2.ryy	(16aa^<\LL	.
.	16gg\	.
.	16ff\	.
.	16ee\)	.
.	16dd\	.
.	16cc\JJ	.
.	(16b\LL	.
.	16cc\	.
.	16dd\	.
.	16ee\	.
.	16ff\	.
.	16ee\JJ)	.
=14	=14	=14
*	*2\right	*
2.ryy	2.ddM\	.
=15	=15	=15
2.ryy	2.bbm\	.
=16	=16	=16
2.ryy	8ccc\	.
.	16qqdd/	.
.	(16cc\LL	.
.	16b\	.
.	16cc\	.
.	16dd\JJ)	.
.	8ee'\L	mf
.	8ee'\	.
.	8ee'\J	.
!!LO:LB:g=original
=17	=17	=17
!	!	!LO:DY:rj
2.ryy	4cc\	ff
.	(16ee\LL	.
.	16gg\JJ)	.
!	!LO:TX:t=P:problem=mixed beam	!
.	8ccc\L	.
.	8c/	.
.	8c/J	.
=18	=18	=18
2.ryy	4.c/	.
.	4r	.
!	!LO:TX:b:t=après le deuxiène Couplet du chant, cette danse doit être repètè.\n      encor une fous avec quelques changeinens.	!
.	8r;	.
==	==	==
*-	*-	*-
!!!system-decoration: {s1,s2}
!!!RDF**kern: < = below
!!!RDF**kern: | = vertical stroke
!!!ENC: Marta Lawrence
!!!END: 2021-05-29
!!!ENC: Tomasz Grochalski
!!!END: 2021-05-15
